icon-themes/sifr_svg/cmd/sc_quotecharstyle.svg

<svg viewBox="0 0 16 16" xmlns="http://www.w3.org/2000/svg"><path d="m6 2c-1.6568542 0-3 1.3431458-3 3v6c0 1.656854 1.3431458 3 3 3h4l2-2v-7c0-1.6568542-1.343146-3-3-3zm0 2h3c.5522847 0 1 .4477153 1 1v5l-1-1h-2v2l1 1h-2c-.5522847 0-1-.447715-1-1v-6c0-.5522847.4477153-1 1-1z" fill="#555753"/></svg>

<svg xmlns="http://www.w3.org/2000/svg" viewBox="0 0 16 16">
  <path
     style="fill:#555753"
     d="M 6,2 C 4.3431458,2 3,3.3431458 3,5 v 6 c 0,1.656854 1.3431458,3 3,3 h 4 l 2,-2 V 5 C 12,3.3431458 10.656854,2 9,2 Z m 0,2 h 3 c 0.5522847,0 1,0.4477153 1,1 v 5 L 9,9 H 7 v 2 l 1,1 H 6 C 5.4477153,12 5,11.552285 5,11 V 5 C 5,4.4477153 5.4477153,4 6,4 Z"
     />
</svg>
